X: 10543
Q: "Reel."
M: C|
L: 1/8
K: Dm
E |\
fde^c d2AF | GBAG FDD :|\
E |\
fde^c d2AF | G/A/B A>G FDDF |\
fde^c d2AF | G/A/B A>G FDD |]


